assets/img/braze_icons/arrow-up.svg

<svg fill="none" height="24" viewBox="0 0 24 24" width="24" xmlns="http://www.w3.org/2000/svg"><path d="m12.7071 4.29289c-.3905-.39052-1.0237-.39052-1.4142 0l-7.00001 7.00001c-.39052.3905-.39052 1.0237 0 1.4142.39053.3905 1.02369.3905 1.41422 0l5.29289-5.29289v11.58579c0 .5523.4477 1 1 1s1-.4477 1-1v-11.58579l5.2929 5.29289c.3905.3905 1.0237.3905 1.4142 0s.3905-1.0237 0-1.4142z" fill="#801ed7"/></svg>

<svg width="24" height="24" viewBox="0 0 24 24" fill="none" xmlns="http://www.w3.org/2000/svg">
<path d="M12.7071 4.29289C12.3166 3.90237 11.6834 3.90237 11.2929 4.29289L4.29289 11.2929C3.90237 11.6834 3.90237 12.3166 4.29289 12.7071C4.68342 13.0976 5.31658 13.0976 5.70711 12.7071L11 7.41421L11 19C11 19.5523 11.4477 20 12 20C12.5523 20 13 19.5523 13 19L13 7.41421L18.2929 12.7071C18.6834 13.0976 19.3166 13.0976 19.7071 12.7071C20.0976 12.3166 20.0976 11.6834 19.7071 11.2929L12.7071 4.29289Z" fill="#801ED7"/>
</svg>
